X:1
T:Title
L:1/8
Q:1/4=90
M:6/8
I:linebreak $
K:C
V:1 treble nm="Church Organ, Staff"
V:1
 D G2 G G2 | A B2 B B2 | c d2 d d2 | e d2- d/ z/ B2 | B d2 A A2 | d d2 B B2 | B d2 e d2 | %7
w: By~Anonymous * * *|||||||
 B A2- A/ z/ d2 | d e2 e e2 |$ e d2 B d2 | B A2 A d2 | c B2- B/ z/ d2 | d e2 e e2 | e d2 B d2 | %14
w: |||||||
 e d2 G B2 | A A2- A/ z/ G2 |] %16
w: ||
